Origami/22x22/apps/company-of-heroes-2.svg

<svg width="22" height="22" version="1" xmlns="http://www.w3.org/2000/svg">
 <path d="m11 1 3.2 6.8 6.8 0.8-4.8 5.2 1.2 7.2-6.4-3.6-6.4 3.6 1.2-7.2-4.8-5.2 6.8-0.8z" style="fill:#e6412b"/>
 <path d="M 11,1 7.8008,7.8008 1,8.5996 1.416,9.051 7.8008,8.3008 11,1.5 14.199,8.3008 20.584,9.051 21,8.5996 14.199,7.8008 11,1 Z M 5.7305,14.225 4.5996,21 4.6914,20.947 5.8008,14.301 5.7305,14.225 Z m 10.54,0 -0.071,0.076 1.11,6.646 0.091,0.053 -1.13,-6.775 z" style="fill:#ffffff;opacity:.2"/>
 <path d="m1.416 9.051-0.416 0.049l4.7305 5.125 0.070312-0.42383-4.3848-4.75zm19.168 0-4.3848 4.75 0.07031 0.42383 4.731-5.125-0.416-0.049zm-9.584 8.349-6.3086 3.547-0.0918 0.553 6.4004-3.6 6.4 3.6-0.091-0.553-6.309-3.547z" style="opacity:.2"/>
 <path d="m13.20851 15.49988h-4.1913v-0.9186l1.4698-1.5851q0.27771-0.29907 0.50415-0.55115t0.3888-0.49134 0.25208-0.48706 0.08972-0.53405q0-0.31616-0.19226-0.49134-0.18799-0.17517-0.5084-0.17517-0.33752 0-0.6494 0.16662-0.31189 0.16662-0.6537 0.47424l-0.718-0.85q0.19226-0.17517 0.40161-0.33325 0.20935-0.16236 0.46142-0.28626 0.25208-0.1239 0.5554-0.19654 0.30334-0.07691 0.6793-0.07691 0.44861 0 0.8032 0.1239 0.35888 0.1239 0.61095 0.35462 0.25208 0.22644 0.38452 0.55115 0.13672 0.3247 0.13672 0.7306 0 0.36743-0.12818 0.70495-0.12818 0.33325-0.35034 0.65795-0.22217 0.32044-0.51695 0.64085-0.29052 0.31616-0.6238 0.64515l-0.75195 0.75625v0.05981h2.5464v1.1108z" style="opacity:.2"/>
 <path d="m13.20851 14.99988h-4.1913v-0.9186l1.4698-1.5851q0.27771-0.29907 0.50415-0.55115t0.3888-0.49134 0.25208-0.48706 0.08972-0.53405q0-0.31616-0.19226-0.49134-0.18799-0.17517-0.5084-0.17517-0.33752 0-0.6494 0.16662-0.31189 0.16662-0.6537 0.47424l-0.718-0.85q0.19226-0.17517 0.40161-0.33325 0.20935-0.16236 0.46142-0.28626 0.25208-0.1239 0.5554-0.19654 0.30334-0.07691 0.6793-0.07691 0.44861 0 0.8032 0.1239 0.35888 0.1239 0.61095 0.35462 0.25208 0.22644 0.38452 0.55115 0.13672 0.3247 0.13672 0.7306 0 0.36743-0.12818 0.70495-0.12818 0.33325-0.35034 0.65795-0.22217 0.32044-0.51695 0.64085-0.29052 0.31616-0.6238 0.64515l-0.75195 0.75625v0.05981h2.5464v1.1108z" style="fill:#ffd93a"/>
</svg>

<svg xmlns="http://www.w3.org/2000/svg" width="22" height="22" version="1">
 <path style="fill:#e6412b" d="M 11,1 14.2,7.8 21,8.6 16.2,13.8 17.4,21 11,17.4 4.6,21 5.8,13.8 1,8.6 7.8,7.8 Z"/>
 <path style="opacity:0.2;fill:#ffffff" d="M 11,1 7.8008,7.8008 1,8.5996 1.416,9.051 7.8008,8.3008 11,1.5 14.199,8.3008 20.584,9.051 21,8.5996 14.199,7.8008 11,1 Z M 5.7305,14.225 4.5996,21 4.6914,20.947 5.8008,14.301 5.7305,14.225 Z m 10.54,0 -0.071,0.076 1.11,6.646 0.091,0.053 -1.13,-6.775 z"/>
 <path style="opacity:0.2" d="M 1.416,9.051 1,9.1 l 4.7305,5.125 0.070312,-0.42383 -4.3848,-4.75 z m 19.168,0 -4.3848,4.75 0.07031,0.42383 4.731,-5.125 -0.416,-0.049 z M 11,17.4 4.6914,20.947 4.5996,21.5 11,17.9 17.4,21.5 17.309,20.947 11,17.4 Z"/>
 <path style="opacity:0.2" d="m 13.20851,15.49988 -4.1913,0 0,-0.9186 1.4698,-1.5851 q 0.27771,-0.29907 0.50415,-0.55115 0.22644,-0.25208 0.3888,-0.49134 0.16236,-0.23926 0.25208,-0.48706 0.08972,-0.2478 0.08972,-0.53405 0,-0.31616 -0.19226,-0.49134 -0.18799,-0.17517 -0.5084,-0.17517 -0.33752,0 -0.6494,0.16662 -0.31189,0.16662 -0.6537,0.47424 L 9,10.05693 Q 9.19226,9.88176 9.40161,9.72368 9.61096,9.56132 9.86303,9.43742 q 0.25208,-0.1239 0.5554,-0.19654 0.30334,-0.07691 0.6793,-0.07691 0.44861,0 0.8032,0.1239 0.35888,0.1239 0.61095,0.35462 0.25208,0.22644 0.38452,0.55115 0.13672,0.3247 0.13672,0.7306 0,0.36743 -0.12818,0.70495 -0.12818,0.33325 -0.35034,0.65795 -0.22217,0.32044 -0.51695,0.64085 -0.29052,0.31616 -0.6238,0.64515 l -0.75195,0.75625 0,0.05981 2.5464,0 0,1.1108 z"/>
 <path style="fill:#ffd93a" d="m 13.20851,14.99988 -4.1913,0 0,-0.9186 1.4698,-1.5851 q 0.27771,-0.29907 0.50415,-0.55115 0.22644,-0.25208 0.3888,-0.49134 0.16236,-0.23926 0.25208,-0.48706 0.08972,-0.2478 0.08972,-0.53405 0,-0.31616 -0.19226,-0.49134 -0.18799,-0.17517 -0.5084,-0.17517 -0.33752,0 -0.6494,0.16662 -0.31189,0.16662 -0.6537,0.47424 L 9,9.55693 Q 9.19226,9.38176 9.40161,9.22368 9.61096,9.06132 9.86303,8.93742 q 0.25208,-0.1239 0.5554,-0.19654 0.30334,-0.07691 0.6793,-0.07691 0.44861,0 0.8032,0.1239 0.35888,0.1239 0.61095,0.35462 0.25208,0.22644 0.38452,0.55115 0.13672,0.3247 0.13672,0.7306 0,0.36743 -0.12818,0.70495 -0.12818,0.33325 -0.35034,0.65795 -0.22217,0.32044 -0.51695,0.64085 -0.29052,0.31616 -0.6238,0.64515 l -0.75195,0.75625 0,0.05981 2.5464,0 0,1.1108 z"/>
</svg>
